X:2416
T:Polska från Västergötland
T:Svenska Folkdansar H1 nr 2
O:Västergötland
B:Traditioner av Svenska Folkdansar Häfte 1, nr 2
R:Polska
Z:Nils L
U:V = wedge
M:3/4
L:1/8
K:F
PFE FG AB | (cd) (d2 c)VA | cB GB AG | FE FC A,C |
PFE FG AB | (cd) (d2 c)VA | cB GB AG | T(FE) F2 F2 |]
[|(cB) G.B A2 | (cB) G.B A2 | PFE FG AG | FE FC A,C |
(cB) G.B A2 | (cB) G.B A2 | PFE FG AG | T(FE) F2 F2 |]
(:musicend:)

Med stämmor ur [[http://www.smus.se/earkiv/fmk/browselarge.php?lang=sw&katalogid=MMD+30&bildnr=00002|smus.se]]

(:music:)
